vsi/arrow-small-right_dark.svg

<svg viewBox="0 0 16 16" fill="none" xmlns="http://www.w3.org/2000/svg" height="1em" width="1em">
  <path d="M8.64 4.99995L11.14 7.49995L11.14 8.19995L8.64 10.7L7.93 9.99995L9.57 8.34995L4 8.34995L4 7.34995L9.57 7.34995L7.92 5.69995L8.64 4.99995Z" fill="#C5C5C5"/>
</svg>

<svg viewBox="0 0 16 16" fill="none" xmlns="http://www.w3.org/2000/svg" height="1em" width="1em">
  <path d="m8.64 5 2.5 2.5v.7l-2.5 2.5-.71-.7 1.64-1.65H4v-1h5.57L7.92 5.7l.72-.7Z" fill="#C5C5C5"/>
</svg>
